icons/Color/24/gimp-color-space-non-linear.svg

<svg height="24" viewBox="0 0 6.3499999 6.3500002" width="24" xmlns="http://www.w3.org/2000/svg"><g transform="translate(0 -290.64998)"><path d="m.264583 290.91455h5.820834v5.820846h-5.820834z" fill="#fff" fill-rule="evenodd"/><path d="m.26458334 292.50206h2.38125006v4.23334h-.2645833v-3.96876h-2.11666676z" fill="#bebebe" fill-rule="evenodd"/><path d="m.26458335 296.73538c.65211582-2.52051 2.58942775-5.71277 5.82083345-5.82082" fill="none" stroke="#dc0000" stroke-width=".264583"/><path d="m0-8.0000124v23.9999994h24v-23.9999994zm1 1h22v21.9999994l-22-.000013z" fill="#2d2d2d" fill-rule="evenodd" transform="matrix(.26458334 0 0 .26458334 0 292.76665)"/></g></svg>

<?xml version="1.0" encoding="UTF-8" standalone="no"?>
<!-- Created with Inkscape (http://www.inkscape.org/) -->

<svg
   xmlns:dc="http://purl.org/dc/elements/1.1/"
   xmlns:cc="http://creativecommons.org/ns#"
   xmlns:rdf="http://www.w3.org/1999/02/22-rdf-syntax-ns#"
   xmlns:svg="http://www.w3.org/2000/svg"
   xmlns="http://www.w3.org/2000/svg"
   xmlns:sodipodi="http://sodipodi.sourceforge.net/DTD/sodipodi-0.dtd"
   xmlns:inkscape="http://www.inkscape.org/namespaces/inkscape"
   width="24"
   height="24"
   viewBox="0 0 6.3499999 6.3500002"
   version="1.1"
   id="svg8"
   inkscape:version="0.92.2 (5c3e80d, 2017-08-06)"
   sodipodi:docname="gimp-color-space-perceptual.svg"
   inkscape:export-filename="/home/alex/soft/graphics/gimp/gimp-2018-01-05/icons/Color/24/gimp-color-space-perceptual.png"
   inkscape:export-xdpi="96"
   inkscape:export-ydpi="96">
  <defs
     id="defs2" />
  <sodipodi:namedview
     id="base"
     pagecolor="#ffffff"
     bordercolor="#666666"
     borderopacity="1.0"
     inkscape:pageopacity="0.0"
     inkscape:pageshadow="2"
     inkscape:zoom="1"
     inkscape:cx="8.626758"
     inkscape:cy="1.2759042"
     inkscape:document-units="px"
     inkscape:current-layer="layer1"
     inkscape:document-rotation="0"
     showgrid="false"
     units="px"
     inkscape:window-width="1920"
     inkscape:window-height="1136"
     inkscape:window-x="0"
     inkscape:window-y="27"
     inkscape:window-maximized="1"
     inkscape:snap-bbox="true"
     inkscape:bbox-paths="true"
     inkscape:bbox-nodes="true"
     inkscape:object-paths="true"
     inkscape:snap-intersection-paths="true"
     inkscape:snap-smooth-nodes="true"
     inkscape:snap-midpoints="true"
     inkscape:snap-object-midpoints="true"
     inkscape:snap-center="true"
     inkscape:snap-text-baseline="true"
     inkscape:snap-page="true"
     inkscape:snap-global="true"
     inkscape:snap-bbox-edge-midpoints="true"
     inkscape:snap-bbox-midpoints="true"
     inkscape:showpageshadow="false">
    <inkscape:grid
       type="xygrid"
       id="grid812" />
  </sodipodi:namedview>
  <metadata
     id="metadata5">
    <rdf:RDF>
      <cc:Work
         rdf:about="">
        <dc:format>image/svg+xml</dc:format>
        <dc:type
           rdf:resource="http://purl.org/dc/dcmitype/StillImage" />
        <dc:title />
      </cc:Work>
    </rdf:RDF>
  </metadata>
  <g
     inkscape:label="Layer 1"
     inkscape:groupmode="layer"
     id="layer1"
     transform="translate(0,-290.64998)">
    <rect
       style="color:#000000;overflow:visible;opacity:1;fill:#ffffff;fill-opacity:1;fill-rule:evenodd;stroke:none;stroke-width:0.26458335;stroke-linecap:round;stroke-linejoin:miter;stroke-opacity:1;paint-order:normal"
       id="rect2481"
       width="5.8208337"
       height="5.8208461"
       x="0.26458335"
       y="290.91455" />
    <path
       style="fill:#bebebe;fill-opacity:1;fill-rule:evenodd;stroke:none;stroke-width:0.26458335px;stroke-linecap:butt;stroke-linejoin:miter;stroke-opacity:1"
       d="M 0.26458334,292.50206 H 2.6458334 v 4.23334 H 2.3812501 v -3.96876 H 0.26458334 Z"
       id="path2687"
       inkscape:connector-curvature="0"
       sodipodi:nodetypes="ccccccc" />
    <g
       id="gimp-color-space-perceptual-24">
      <path
         sodipodi:nodetypes="cc"
         inkscape:connector-curvature="0"
         id="path819"
         d="m 0.26458335,296.73538 c 0.65211582,-2.52051 2.58942775,-5.71277 5.82083345,-5.82082"
         style="fill:none;fill-rule:evenodd;stroke:#dc0000;stroke-width:0.26458335;stroke-linecap:butt;stroke-linejoin:miter;stroke-opacity:1" />
      <path
         id="rect814"
         transform="matrix(0.26458334,0,0,0.26458334,0,292.76665)"
         d="M 0,-8.0000124 V 15.999987 H 24 V -8.0000124 Z m 1,1 H 23 V 14.999987 l -22,-1.3e-5 z"
         style="color:#000000;overflow:visible;opacity:1;fill:#2d2d2d;fill-opacity:1;fill-rule:evenodd;stroke:none;stroke-width:1;stroke-linecap:round;stroke-linejoin:miter;stroke-opacity:1;paint-order:normal"
         inkscape:connector-curvature="0"
         sodipodi:nodetypes="cccccccccc" />
    </g>
  </g>
</svg>
